!!!OTL: Der heimkehrende Soldat Ein Soldat kam aus dem Kriege, hurrah!
!!!ARE: Europa, Mitteleuropa, Deutschland (), Sachsen, Priestewitz
!!!YOR: 5, S. 147
!!    1908 aufgezeichnet
!!!SCT: Q0103
!!!YEM: Copyright 1995, estate of Helmut Schaffrath.
**kern
*ICvox
*Ivox
*M4/4
*k[f#]
*G:
{8d
8d
=1
4g
4b
4b
4b
=2
4b
8a
8b
4cc
4dd
=3
4b
2r}
{8dd
8cc
=4
4b
4b
4b
4dd
=5
4.dd
8cc
8cc
8b}
{8cc
8b
=6
8a
8a
8a
8a
4a
4ee
=7
4.ee
8dd
4dd}
{4cc
=8
4b
4b
4a
4a
=9
4g
2r}
==
!!!AGN: Ballade, Ehe, Betrug
!! Anhaengsel an der ersten Zeile; Vierte Zeile = Refrain.
!!!ONB: ESAC (Essen Associative Code) Database: BALLADE
!!!AMT: simple quadruple
!!!AIN: vox
!!!EED: Helmut Schaffrath
!!!EEV: 1.0
*-
